public/formular-icons/english/lower-w.svg

<svg style="vertical-align:-.025ex" xmlns="http://www.w3.org/2000/svg" width="1.62ex" height="1.027ex" viewBox="0 -443 716 454" xmlns:xlink="http://www.w3.org/1999/xlink"><defs><path id="a" d="M580 385q0 21 19 39t42 19q18 0 33-18t16-57q0-29-19-115-15-56-27-92t-35-81-55-68-72-23q-44 0-78 16t-49 43q-1-1-3-4-41-55-100-55-26 0-50 6t-47 19-37 39-14 63q0 54 34 146t35 117v14q0 3-4 7t-11 4h-4q-23 0-42-19t-30-41-17-42-8-22q-2-2-16-2H27q-6 6-6 9 0 6 8 28t23 51 44 52 65 23q43 0 66-25t23-58q0-18-33-108t-33-139q0-46 21-65t53-20q43 0 76 61l5 9v32q0 6 1 8t1 7 1 9 3 13 3 17 6 24 8 32 11 43q29 114 33 123 13 27 43 27 19 0 26-10t8-19q0-13-29-128t-32-132q-2-11-2-35v-7q0-15 3-29t19-29 45-16q71 0 113 122 9 23 20 65t12 60q0 33-13 52t-26 32-13 28Z"/></defs><g stroke="currentColor" fill="currentColor" stroke-width="0"><use data-c="1D464" xlink:href="#a" transform="scale(1 -1)"/></g></svg>

<svg style="vertical-align: -0.025ex" xmlns="http://www.w3.org/2000/svg" width="1.62ex" height="1.027ex" role="img" focusable="false" viewBox="0 -443 716 454" xmlns:xlink="http://www.w3.org/1999/xlink"><defs><path id="MJX-77-TEX-I-1D464" d="M580 385Q580 406 599 424T641 443Q659 443 674 425T690 368Q690 339 671 253Q656 197 644 161T609 80T554 12T482 -11Q438 -11 404 5T355 48Q354 47 352 44Q311 -11 252 -11Q226 -11 202 -5T155 14T118 53T104 116Q104 170 138 262T173 379Q173 380 173 381Q173 390 173 393T169 400T158 404H154Q131 404 112 385T82 344T65 302T57 280Q55 278 41 278H27Q21 284 21 287Q21 293 29 315T52 366T96 418T161 441Q204 441 227 416T250 358Q250 340 217 250T184 111Q184 65 205 46T258 26Q301 26 334 87L339 96V119Q339 122 339 128T340 136T341 143T342 152T345 165T348 182T354 206T362 238T373 281Q402 395 406 404Q419 431 449 431Q468 431 475 421T483 402Q483 389 454 274T422 142Q420 131 420 107V100Q420 85 423 71T442 42T487 26Q558 26 600 148Q609 171 620 213T632 273Q632 306 619 325T593 357T580 385Z"></path></defs><g stroke="currentColor" fill="currentColor" stroke-width="0" transform="scale(1,-1)"><g data-mml-node="math"><g data-mml-node="mi"><use data-c="1D464" xlink:href="#MJX-77-TEX-I-1D464"></use></g></g></g></svg>
